#LoopDefault 2 

ABCD C192 t150
ABCD o4 q6 v16 l8 @1

A <a16r16 a&a r >   d16r16 d&d&drr
	B e16r16 e&er   a16r16 a&a&arr

; replace parameter
; NM ALG  FB
@001   4   0
; AR  DR  SR  RR  SL  TL  KS  ML  DT AMS
  20  10  15  10  10  33   0   5   0   0
  25  10  15  10  10   0   0   1   0   0
  17  10  15  10   5  40   0   3   0   0
  25  10  15  10  10   0   0   1   0   0

 

