#LoopDefault 2 

ABCD C192 t150
ABCD o4 q6 v16 l8 @1

A <a16r16 a&a r >   d16r16 d&d&drr
	B e16r16 e&er   a16r16 a&a&arr

; replace parameter
; nm alg fbl
@001 002 007				=	Harpsic
; ar  dr  sr  rr  sl  tl  ks  ml  dt ams
 031 012 004 010 001 032 000 012 000 000
 031 002 004 006 015 057 003 015 001 000
 031 012 004 006 000 030 000 001 000 000
 031 005 007 007 002 000 002 003 005 000

 

