#LoopDefault 2 

ABCD C192 t150
ABCD o6 q6 v16 l8 @1

A <a16r16 a&a r >   d16r16 d&d&drr
	B e16r16 e&er   a16r16 a&a&arr

; replace parameter
; NM ALG  FB
@001   7   0
; AR  DR  SR  RR  SL  TL  KS  ML DT1 DT2 AMS
  25  10  15  10  10  15   0   7   0   0   0
  25  10  15  10  10  10   0   5   0   0   0
  25  10  15  10  10   5   0   3   0   0   0
  25  10  15  10  10   0   0   1   0   0   0

 

