#LoopDefault 2 

ABCD C192 t150
ABCD o4 q6 v16 l8 @1

A <a16r16 a&a r >   d16r16 d&d&drr
	B e16r16 e&er   a16r16 a&a&arr

; replace parameter
; nm alg fbl
@001 002 007				=	EPiano3
; ar  dr  sr  rr  sl  tl  ks  ml  dt ams
 028 004 003 007 001 033 002 001 003 000
 027 009 001 002 000 071 003 012 000 000
 028 004 003 006 000 049 002 004 006 000
 026 003 000 005 010 000 003 001 000 000

 

