// track_parameter %%@vr20 q4 l8 v15 @2%% 
#EX-VRC7
#EX-MMC5

ABCDEGHIJKLab t150 ; @t4,24 tempo

// replace parameter
A  o4@vr20 q4 l8 v15 @2
B  o4@vr20 q4 l8 v15 @2
a  o4@vr20 q4 l8 v15 @2
b  o4@vr20 q4 l8 v15 @2



@v20= { 15 15 15  15 15 15  12 12 10 10  8 8  6 6 6 6  4 4 4 4  2 2 2 2 2 | 2 }
 

