; track_parameter %%q6 l8 v16 @1%%

ABCD C192 t150 
; replace parameter
A  o4q6 l8 v16 @1
B  o4q6 l8 v16 @1
C  o4q6 l8 v16 @1
D  o4q6 l8 v16 @1

A  c &cr r r  >c&cr <
B  r g &gr r  r g &g
C  r r >c&cr  r r c <
D  r r r >e&e &er r <


; NM ALG  FB
@001   4   0
; AR  DR  SR  RR  SL  TL  KS  ML  DT AMS
  31   7   7   7   7  40   0   6   0   0
  31   7   7   7   7  10   0   2   0   0
  31   7   7   7   7  40   0   6   0   0
  31   7   7   7   7  10   0   2   0   0

 

