#LoopDefault 2 

ABCD C192 t150
ABCD o3 q6 v16 l8 @1

A <a16r16 a&a r >   d16r16 d&d&drr
	B e16r16 e&er   a16r16 a&a&arr

; replace parameter
; NM ALG  FB
@001   1   7
; AR  DR  SR  RR  SL  TL  KS  ML  DT AMS
  31  12   4  10   1  32   0  12   0   0
  31   2   4   6  15  20   3  15   1   0
  31  12   4   6   0  30   0   1   0   0
  31   5   7   7   2   0   2   3   5   0

 

