#EX-VRC7
#EX-MMC5

ABCDGHIJKLab t150
A v15 @vr20 q2 o3 @2 l4 ab >cde fga<

C EP10 l8 o8 [brrf brrr]2 //BD
D  EP20 @v20 l8 o9 [rre^ rre^]2 //Sn

GHIJKL OP0 @@0 //FM波
//G v15 q8 o3 l1 b1

@EP10= { -127 -127 -127 -127 -127  -96 -96 -96 -96  -64 -64 -64 -64  -32 -32 -32 | 0 }
@EP20= { 3 3  2 2 1 1 1 | 0 }
@v20= { 15 15 15  15 15 15  12 12 10 10  8 8  6 6 6 6  4 4 4 4  2 2 2 2 2 | 2 }
@OP0 = { $02,$22,$28,$03,$f3,$f3,$b3,$b5 }

