#EX-VRC7 
#EX-MMC5
#EX-NAMCO106 4

ABCDGHIJKLab t150
A v15 @vr20 q2 o2 @2 l4 [ab >cde fga<]2
B v15 @v30 EN30 o5 @2 q8 l1 [e]4

C EP10 l8 o8 [brrf brrr  bfrb frrr]2 //BD
D  EP20 @v20 l8 o9 [rre^ rre^]4 //Sn

//G OP0 @@0 v15 q8 o3 l1 b2 b2 b2 >c2< //FM波
//P @@20 o5 q8 v15 a1 //TRI

@EN30= { 0 0 0 | 7 0 0 0  -4 0 0 0  -3 0 0 0 }
@v30= { 15 15 15 15 15 15 15 15  13 13 13 13 13 13 13 13  11 11 11 11 11 11 11 11  9 9 9 9 9 9 9 9  7 7 7 7 7 7 7 7
6 6 6 6 6 6 6 6  5 5 5 5 5 5 5 5 4 4 4 4 4 4 4 4  3 3 3 3 3 3 3 3  2 2 2 2 2 2 2 2 | 1 }

@EP10= { -127 -127 -127 -127 -127  -96 -96 -96 -96  -64 -64 -64 -64  -32 -32 -32 | 0 }

@EP20= { 3 3  2 2 1 1 1 | 0 }
@v20= { 15 15 15  15 15 15  12 12 10 10  8 8  6 6 6 6  4 4 4 4  2 2 2 2 2 | 2 }

@OP0 = { $02,$22,$28,$03,$f3,$f3,$b3,$b5 }

@N20={ 0  8 9 10 11 12 13 14 15  15 14 13 12 11 10 9 8   7 6 5 4 3 2 1 0  0 1 2 3 4 5 6 7 }








 
